X:375
T: Finale in the Battle of Prague
N: O'Farrell's Pocket Companion v.4 (Sky ed. p.161)
M: 2/4
L: 1/8
Q: 160
R: march
K: G
d| gdd2| gee2| d>B c/B/A/G/| F/G/A/F/ D2|
gdd2| gee2| dB d/c/B/A/| G2G :|
P:2
z| FF FE/F/| GG GA/B/| cc d/c/B/A/| BdBG|
FF FE/F/| GG GA/B/| cAGF| G2G :|
P:3
z|: fdef| g/f/g/a/ gb/g/| fdef| g3b/g/|
fdef| g/f/g/a/ gb/g/| fdef| g2 g>d|
cABG| A/G/A/B/ Ad| cABG| A/G/F/E/ D2|
cABG| A/G/A/B/ Ad| cABG| HA3 d|
gdd2| gee2| d>B c/B/A/G/| F/G/A/F/ D2|
gdd2| gee2| dB d/c/B/A/| G2G2 ||
